public/images/sw-skills/git.svg

<svg xmlns="http://www.w3.org/2000/svg" xml:space="preserve" style="fill-rule:evenodd;clip-rule:evenodd;stroke-linejoin:round;stroke-miterlimit:2" viewBox="0 0 2400 1600"><path d="M0 0h2400v1600H0z" style="fill:#ffca98"/><path d="M163.59 38.806c-5.985 0-10.442 2.939-10.442 10.012 0 5.329 2.938 9.028 10.12 9.028 6.088 0 10.222-3.587 10.222-9.248 0-6.416-3.7-9.792-9.9-9.792m-11.97 49.94c-1.416 1.738-2.827 3.585-2.827 5.765 0 4.348 5.545 5.656 13.162 5.656 6.31 0 14.905-.441 14.905-6.308 0-3.487-4.135-3.703-9.36-4.03zm32.201-49.611c1.955 2.503 4.025 5.985 4.025 10.989 0 12.075-9.465 19.146-23.169 19.146-3.485 0-6.64-.434-8.596-.977l-3.591 5.765 10.66.651c18.822 1.199 29.915 1.744 29.915 16.208 0 12.514-10.985 19.581-29.915 19.581-19.69 0-27.196-5.005-27.196-13.598 0-4.898 2.176-7.503 5.983-11.098-3.591-1.518-4.786-4.236-4.786-7.175 0-2.395 1.195-4.57 3.156-6.638 1.958-2.065 4.133-4.135 6.744-6.528-5.33-2.61-9.356-8.267-9.356-16.319 0-12.509 8.269-21.1 24.91-21.1 4.679 0 7.509.431 10.011 1.088h21.215v9.244zm29.159-19.77c-6.202 0-9.791-3.593-9.791-9.796 0-6.196 3.589-9.571 9.791-9.571 6.31 0 9.9 3.375 9.9 9.571 0 6.203-3.59 9.796-9.9 9.796m-14.036 65.376v-8.59l5.55-.759c1.524-.221 1.74-.545 1.74-2.18V41.23c0-1.195-.325-1.959-1.416-2.283l-5.874-2.069 1.196-8.809h22.521v45.144c0 1.744.105 1.96 1.741 2.181l5.549.759v8.59zm74.026-4.216c-4.68 2.282-11.532 4.349-17.736 4.349-12.945 0-17.839-5.217-17.839-17.515v-28.5c0-.651 0-1.088-.874-1.088h-7.614V28.09c9.577-1.091 13.381-5.878 14.578-17.736h10.336v15.453c0 .759 0 1.088.872 1.088h15.338v10.877h-16.209v25.999c0 6.419 1.525 8.919 7.396 8.919 3.05 0 6.201-.759 8.812-1.739z" style="fill:#413000;fill-rule:nonzero" transform="translate(468.355 494.413)scale(5.36062)"/><path d="M111.78 51.977 62.035 2.238a7.335 7.335 0 0 0-10.374 0l-10.329 10.33L54.434 25.67c3.046-1.028 6.537-.339 8.964 2.089a8.72 8.72 0 0 1 2.07 9.019l12.628 12.628c3.055-1.053 6.58-.373 9.019 2.071a8.726 8.726 0 0 1 0 12.345 8.73 8.73 0 0 1-12.349 0 8.73 8.73 0 0 1-1.9-9.494L61.089 42.551l-.001 30.991a8.8 8.8 0 0 1 2.309 1.651c3.41 3.409 3.41 8.933 0 12.348-3.41 3.409-8.938 3.409-12.345 0-3.41-3.415-3.41-8.939 0-12.348a8.7 8.7 0 0 1 2.859-1.905V42.009a8.6 8.6 0 0 1-2.859-1.905c-2.583-2.581-3.205-6.372-1.881-9.544L36.255 17.642 2.149 51.747a7.34 7.34 0 0 0 0 10.378l49.742 49.739a7.337 7.337 0 0 0 10.376 0l49.512-49.504a7.34 7.34 0 0 0 0-10.379" style="fill:#f05133;fill-rule:nonzero" transform="translate(468.355 494.413)scale(5.36062)"/></svg>

<?xml version="1.0" encoding="UTF-8" standalone="no"?>
<!DOCTYPE svg PUBLIC "-//W3C//DTD SVG 1.1//EN" "http://www.w3.org/Graphics/SVG/1.1/DTD/svg11.dtd">
<svg width="100%" height="100%" viewBox="0 0 2400 1600" version="1.1" xmlns="http://www.w3.org/2000/svg" xmlns:xlink="http://www.w3.org/1999/xlink" xml:space="preserve" xmlns:serif="http://www.serif.com/" style="fill-rule:evenodd;clip-rule:evenodd;stroke-linejoin:round;stroke-miterlimit:2;">
    <rect x="0" y="0" width="2400" height="1600" style="fill:rgb(255,202,152);"/>
    <g transform="matrix(5.36062,0,0,5.36062,468.355,494.413)">
        <path d="M163.59,38.806C157.605,38.806 153.148,41.745 153.148,48.818C153.148,54.147 156.086,57.846 163.268,57.846C169.356,57.846 173.49,54.259 173.49,48.598C173.49,42.182 169.79,38.806 163.59,38.806L163.59,38.806ZM151.62,88.746C150.204,90.484 148.793,92.331 148.793,94.511C148.793,98.859 154.338,100.167 161.955,100.167C168.265,100.167 176.86,99.726 176.86,93.859C176.86,90.372 172.725,90.156 167.5,89.829L151.62,88.746L151.62,88.746ZM183.821,39.135C185.776,41.638 187.846,45.12 187.846,50.124C187.846,62.199 178.381,69.27 164.677,69.27C161.192,69.27 158.037,68.836 156.081,68.293L152.49,74.058L163.15,74.709C181.972,75.908 193.065,76.453 193.065,90.917C193.065,103.431 182.08,110.498 163.15,110.498C143.46,110.498 135.954,105.493 135.954,96.9C135.954,92.002 138.13,89.397 141.937,85.802C138.346,84.284 137.151,81.566 137.151,78.627C137.151,76.232 138.346,74.057 140.307,71.989C142.265,69.924 144.44,67.854 147.051,65.461C141.721,62.851 137.695,57.194 137.695,49.142C137.695,36.633 145.964,28.042 162.605,28.042C167.284,28.042 170.114,28.473 172.616,29.13L193.831,29.13L193.831,38.374L183.821,39.136" style="fill:rgb(65,48,0);fill-rule:nonzero;"/>
    </g>
    <g transform="matrix(5.36062,0,0,5.36062,468.355,494.413)">
        <path d="M212.98,19.366C206.778,19.366 203.189,15.773 203.189,9.57C203.189,3.374 206.778,-0.001 212.98,-0.001C219.29,-0.001 222.88,3.374 222.88,9.57C222.88,15.773 219.29,19.366 212.98,19.366ZM198.944,84.742L198.944,76.152L204.494,75.393C206.018,75.172 206.234,74.848 206.234,73.213L206.234,41.23C206.234,40.035 205.909,39.271 204.818,38.947L198.944,36.878L200.14,28.069L222.661,28.069L222.661,73.213C222.661,74.957 222.766,75.173 224.402,75.394L229.951,76.153L229.951,84.743L198.943,84.743" style="fill:rgb(65,48,0);fill-rule:nonzero;"/>
    </g>
    <g transform="matrix(5.36062,0,0,5.36062,468.355,494.413)">
        <path d="M272.97,80.526C268.29,82.808 261.438,84.875 255.234,84.875C242.289,84.875 237.395,79.658 237.395,67.36L237.395,38.86C237.395,38.209 237.395,37.772 236.521,37.772L228.907,37.772L228.907,28.09C238.484,26.999 242.288,22.212 243.485,10.354L253.821,10.354L253.821,25.807C253.821,26.566 253.821,26.895 254.693,26.895L270.031,26.895L270.031,37.772L253.822,37.772L253.822,63.771C253.822,70.19 255.347,72.69 261.218,72.69C264.268,72.69 267.419,71.931 270.03,70.951L272.97,80.527" style="fill:rgb(65,48,0);fill-rule:nonzero;"/>
    </g>
    <g transform="matrix(5.36062,0,0,5.36062,468.355,494.413)">
        <path d="M111.78,51.977L62.035,2.238C59.173,-0.627 54.527,-0.627 51.661,2.238L41.332,12.568L54.434,25.67C57.48,24.642 60.971,25.331 63.398,27.759C65.837,30.201 66.522,33.722 65.468,36.778L78.096,49.406C81.151,48.353 84.676,49.033 87.115,51.477C90.526,54.887 90.526,60.412 87.115,63.822C83.704,67.234 78.179,67.234 74.766,63.822C72.202,61.256 71.567,57.488 72.866,54.328L61.089,42.551L61.088,73.542C61.92,73.954 62.704,74.503 63.397,75.193C66.807,78.602 66.807,84.126 63.397,87.541C59.987,90.95 54.459,90.95 51.052,87.541C47.642,84.126 47.642,78.602 51.052,75.193C51.895,74.352 52.87,73.715 53.911,73.288L53.911,42.009C52.87,41.584 51.896,40.952 51.052,40.104C48.469,37.523 47.847,33.732 49.171,30.56L36.255,17.642L2.149,51.747C-0.716,54.614 -0.716,59.26 2.149,62.125L51.891,111.864C54.755,114.729 59.4,114.729 62.267,111.864L111.779,62.36C114.644,59.494 114.644,54.847 111.779,51.981" style="fill:rgb(240,81,51);fill-rule:nonzero;"/>
    </g>
</svg>
